X: 215
T: Summer Evening   #2
R: air, waltz
%S: s:4 b:16(4+4+4+4)
B: O'Neill's 1850 #215
O: F.O'Neill
Z: 1997 by John Chambers <jc@trillian.mit.edu>
Q: "Moderate"
M: 3/4
L: 1/8
K: A
E "A"|: A2- A(c BA) | G3 [1 (B cd) | e2 fd BA | G4 ((3EFG :|[2 A (B/c/d) | e2 fd BG |
| A4 H|[| (c>d) "^B"| e2- e(f ed) | c3 (e dB) | A2- A(B AG) | "^->A2"E4 |]
